**kern	**text
*I"钢琴	*
*clefG2	*
*k[f#c#g#d#]	*
*M4/4	*
*MM89	*
=1	=1
1r	.
=2	=2
1r	.
=3	=3
1r	.
=4	=4
1r	.
=5	=5
8r	.
16eLL	あ
16eJJ	い
8f#L	を
[8g#J	ちゅ
4.g#]	.
8r	.
=6	=6
8r	.
16eLL	あ
16eJJ	い
8f#L	に
[8g#J	ゆ
4.g#]	.
8r	.
=7	=7
8r	.
16eLL	あ
16eJJ	い
8f#L	ら
[8g#J	ゆ
4.g#]	.
8r	.
=8	=8
8r	.
8g#L	あ
8a	た
[8bJ	ま
8b]	.
4g#	の
[8f#	な
=9	=9
8f#L]	.
8eJ	か
8r	.
8cc#	が
8cc#L	ん
8cc#	が
8a	ん
8f#J	な
=10	=10
8f#L	あ
8g#	て
8a	る
8bJ	みゅ
8bL	う
8b	じ
8g#	い
[8eJ	く
=11	=11
8e]	.
8r	.
8g#L	へ
[8aJ	び
8a]	.
4c#	い
8e	ろ
=12	=12
8d#L	お
8c#	て
8d#	え
[8eJ	しょ
8.eL_	.
32eLL]	.
32eJJJ	ん
4r	.
=13	=13
1r	.
=14	=14
1r	.
=15	=15
1r	.
=16	=16
2r	.
8eL	ぽ
8e	お
8f#	ぷ
8g#J	こ
=17	=17
16f#KL	ん
[8.eJ	が
16e]	.
16r	.
8r	.
8d#L	は
8d#	じ
8e	け
8f#J	る
=18	=18
16eKL	よ
[8.d#J	に
16d#]	.
16r	.
8r	.
8eL	す
8e	き
8f#	と
8g#J	ゆ
=19	=19
8f#L	う
8e	も
8d#	じ
[8c#J	が
8c#L]	.
16d#L	お
[16eJJ	ど
8eL]	.
[8d#J	る
=20	=20
8d#]	.
8r	.
4r	.
8eL	か
8e	お
8f#	や
8g#J	こ
=21	=21
16f#KL	え
[8.eJ	お
16e]	.
16r	.
8r	.
8d#L	お
8d#	も
8e	う
8f#J	だ
=22	=22
16eKL	け
[8.d#J	で
16d#]	.
16r	.
8r	.
8eL	い
8e	て
8f#	も
8g#J	た
=23	=23
8eL	あ
8f#	て
8g#	も
[8aJ	い
8a]	.
4c#	ら
[8e	れ
=24	=24
8eL]	.
[8f#J	な
16.f#LL]	.
32f#JJk	い
8r	.
8cc#L	こ
8cc#	ん
8cc#	な
8bJ	き
=25	=25
8f#L	も
8g#	ち
8a	に
8bJ	な
8aL	れ
8g#	る
8f#	う
8eJ	て
=26	=26
8r	.
8eL	ぼ
8d#	く
[8c#J	わ
8c#]	.
8r	.
8c#L	つ
8aJ	い
=27	=27
8g#L	て
8f#	い
8e	る
[8f#J	ね
2f#]	.
=28	=28
8r	.
16eLL	あ
16eJJ	い
8f#L	を
[8g#J	ちゅ
4.g#]	.
8r	.
=29	=29
8r	.
16eLL	あ
16eJJ	い
8f#L	に
[8g#J	ゆ
4.g#]	.
8r	.
=30	=30
8r	.
16eLL	あ
16eJJ	い
8f#L	ら
[8g#J	ゆ
4.g#]	.
8r	.
=31	=31
8r	.
8g#L	き
8a	み
[8bJ	に
8b]	.
4g#	あ
[8f#	え
=32	=32
8f#L]	.
8eJ	て
8r	.
8cc#	ど
8cc#L	ん
8cc#	ど
8a	ん
8f#J	ち
=33	=33
8f#L	か
8g#	ず
8a	く
8bJ	そ
8bL	の
8b	きょ
8g#	り
[8eJ	に
=34	=34
8eL]	.
8e	ま
8d#	あ
[8c#J	く
8c#]	.
8r	.
8c#L	す
8aJ	は
=35	=35
8g#L	い
8f#	て
8e	ん
[8f#J	しょ
4f#_	.
16.f#LL]	.
32f#JJk	ん
8r	.
=36	=36
8r	.
16eLL	あ
16eJJ	い
8f#L	を
[8g#J	ちゅ
4.g#]	.
8r	.
=37	=37
8r	.
16eLL	あ
16eJJ	い
8f#L	に
[8g#J	ゆ
4.g#]	.
8r	.
=38	=38
8r	.
16eLL	あ
16eJJ	い
8f#L	ら
[8g#J	ゆ
4.g#]	.
8r	.
=39	=39
8r	.
8g#L	は
8a	あ
[8bJ	と
8b]	.
4g#	の
[8f#	お
=40	=40
8f#L]	.
8eJ	く
8r	.
8cc#	じゃ
8cc#L	ん
8cc#	じゃ
8a	ん
8f#J	あ
=41	=41
8f#L	ふ
8g#	れ
8a	る
8bJ	い
8bL	と
8b	し
8g#	さ
[8eJ	が
=42	=42
8e]	.
8r	.
8g#L	へ
[8aJ	び
8a]	.
4c#	い
8e	ろ
=43	=43
8d#L	お
8c#	て
8d#	え
[8eJ	しょ
8.eL_	.
32eLL]	.
32eJJJ	ん
4r	.
=44	=44
1r	.
=45	=45
2r	.
8eL	ひ
8e	と
8f#	わ
8g#J	だ
=46	=46
16f#KL	れ
[8.eJ	も
16e]	.
16r	.
8r	.
8d#L	い
8d#	しょ
8e	う
8f#J	の
=47	=47
16eKL	う
[8.d#J	ち
16d#]	.
16r	.
8r	.
8eL	な
8e	ん
8f#	か
8g#J	い
=48	=48
8f#L	あ
8e	せ
8d#	る
[8c#J	の
8c#L]	.
16d#L	だ
[16eJJ	ろ
8eL]	.
[8d#J	お
=49	=49
8d#]	.
8r	.
4r	.
8eL	た
8e	あ
8f#	た
8g#J	い
=50	=50
16f#KL	ち
[8.eJ	ど
16e]	.
16r	.
8r	.
8d#L	わ
8d#	す
8e	れ
8f#J	ら
=51	=51
16eKL	れ
[8.d#J	な
32d#KLL]	.
16.d#'JJ	い
8r	.
8eL	こ
8e	い
8f#	が
8g#J	で
=52	=52
8eL	き
8f#	た
8g#	ら
[8aJ	ま
8a]	.
4c#	ぞ
[8e	く
=53	=53
8e]	.
4.f#'	さ
8cc#L	そ
8cc#	ん
8cc#	な
8bJ	と
=54	=54
8f#L	き
8g#	め
8a	き
8bJ	お
8aL	か
8g#	ん
8f#	じ
8eJ	て
=55	=55
8r	.
8eL	は
8d#	な
[8c#J	わ
8c#]	.
8r	.
16c#LL	ほ
16c#J	こ
8aJ	ろ
=56	=56
8g#L	ぶ
8f#	の
8e	か
[8f#J	な
2f#]	.
=57	=57
4r	.
8r	.
16eLL	あ
16eJJ	い
16.f#LL	ぴ
32f#JJk	る
[4.g#	ゆ
=58	=58
8g#]	.
8r	.
8r	.
16eLL	あ
16eJJ	い
16.f#LL	た
32f#JJk	ちゅ
[4.g#	ゆ
=59	=59
8g#]	.
8r	.
8r	.
16eLL	あ
16eJJ	い
16.f#LL	ほ
32f#JJk	る
[4.g#	ゆ
=60	=60
8g#]	.
8r	.
8r	.
8g#	ゆ
8a	め
4b	の
[8g#	な
=61	=61
8g#]	.
4f#	か
8e	で
8r	.
8cc#L	だ
8cc#	ん
8cc#J	だ
=62	=62
8aL	ん
8f#	お
8f#	お
8g#J	き
8aL	く
8b	な
8b	あ
8bJ	て
=63	=63
8g#	ゆ
4e	く
8e	ぼ
8d#	く
4.c#'	の
=64	=64
8c#L	い
8a	ま
8g#	じ
8f#J	ね
8e	え
[4.f#	しょ
=65	=65
16.f#LL]	.
32f#JJk	ん
8r	.
8r	.
16eLL	あ
16eJJ	い
16.f#LL	ぴ
32f#JJk	る
[4.g#	ゆ
=66	=66
8g#]	.
8r	.
8r	.
16eLL	あ
16eJJ	い
16.f#LL	た
32f#JJk	ちゅ
[4.g#	ゆ
=67	=67
8g#]	.
8r	.
8r	.
16eLL	あ
16eJJ	い
16.f#LL	ほ
32f#JJk	る
[4.g#	ゆ
=68	=68
8g#]	.
8r	.
8r	.
8g#	こ
8a	の
4b	お
[8g#	も
=69	=69
8g#]	.
4f#	い
8e	の
8r	.
8cc#L	び
8cc#	ん
8cc#J	び
=70	=70
8aL	ん
8f#	つ
8f#	た
8g#J	え
8aL	て
8b	ほ
8b	し
8bJ	い
=71	=71
8g#	か
4.e'	ら
8g#	へ
4a	び
[8c#	い
=72	=72
8c#L]	.
8e	ろ
8d#	お
8c#J	て
8d#	え
[4e	しょ
16.eLL]	.
32eJJk	ん
=73	=73
1r	.
=74	=74
1r	.
=75	=75
1r	.
=76	=76
2r	.
8r	.
8bL	い
8b	つ
8bJ	も
=77	=77
8aL	き
8g#J	い
16f#KL	て
8.eJ	た
8r	.
8bL	ふぇ
8b	ふぉ
8bJ	り
=78	=78
8aL	と
8g#J	そ
8r	.
8f#	あ
8e	の
4.dn	きょ
=79	=79
8dnL	く
8c#	の
8f#	よ
8g#J	お
2a	に
=80	=80
2r	.
8aL	ず
8b	う
8a	と
8bJ	く
=81	=81
8aL	り
8bJ	か
16aKL	え
8e	し
[16aJk	て
16aLL]	.
16aJJ	に
4g#	ゆ
16f#LL	よ
16g#JJ	じ
=82	=82
16f#KL	か
[8.e#XJ	ん
8e#]	.
8r	.
8d#L	き
8g#J	み
16enKL	だ
[8.eJ	け
=83	=83
4e]	.
8r	.
8a	り
8a#XL	く
8b#XJ	え
48anLLL	す
[48aJJ	と
12a_	.
8aJ]	.
=84	=84
6b#X	ちゅ
[12bn	う
2.b]	.
=85	=85
2r	.
8r	.
16eLL	あ
16eJJ	い
8f#L	を
[8g#J	ちゅ
=86	=86
2g#]	.
8r	.
16eLL	あ
16eJJ	い
8f#L	に
[8g#J	ゆ
=87	=87
2g#]	.
8r	.
16eLL	あ
16eJJ	い
8f#L	ら
[8g#J	ゆ
=88	=88
2g#]	.
8r	.
8g#L	き
8a	み
[8bJ	に
=89	=89
8b]	.
4g#	あ
[8f#	え
8f#L]	.
8eJ	て
8r	.
8cc#	ど
=90	=90
8cc#L	ん
8cc#	ど
8a	ん
8f#J	ち
8f#L	か
8g#	ず
8a	く
8bJ	そ
=91	=91
8bL	の
8b	きょ
8g#	り
[8eJ	に
8eL]	.
8e	ま
8d#	あ
[8c#J	く
=92	=92
8c#]	.
8r	.
8c#L	す
8aJ	は
8g#L	い
8f#	て
8e	ん
[8f#J	しょ
=93	=93
4f#_	.
16.f#LL]	.
32f#JJk	ん
8r	.
8r	.
16eLL	あ
16eJJ	い
8f#L	を
[8g#J	ちゅ
=94	=94
2g#]	.
8r	.
16eLL	あ
16eJJ	い
8f#L	に
[8g#J	ゆ
=95	=95
2g#]	.
8r	.
16eLL	あ
16eJJ	い
8f#L	ら
[8g#J	ゆ
=96	=96
2g#]	.
8r	.
8g#L	は
8a	あ
[8bJ	と
=97	=97
8b]	.
4g#	の
[8f#	お
8f#L]	.
8eJ	く
8r	.
8cc#	じゃ
=98	=98
8cc#L	ん
8cc#	じゃ
8a	ん
8f#J	あ
8f#L	ふ
8g#	れ
8a	る
8bJ	い
=99	=99
8bL	と
8b	し
8g#	さ
[8eJ	が
8e]	.
8r	.
8g#L	へ
[8aJ	び
=100	=100
8a]	.
4c#	い
8e	ろ
8d#L	お
8c#	て
8d#	え
[8eJ	しょ
=101	=101
8.eL_	.
32eLL]	.
32eJJJ	ん
4r	.
2r	.
==	==
*-	*-
